src/assets/images/icon-review.inline.svg

<?xml version="1.0" encoding="UTF-8"?>
<svg width="84px" height="77px" viewBox="0 0 84 77" version="1.1" xmlns="http://www.w3.org/2000/svg" xmlns:xlink="http://www.w3.org/1999/xlink">
    <!-- Generator: Sketch 54.1 (76490) - https://sketchapp.com -->
    <title>Group 13</title>
    <desc>Created with Sketch.</desc>
    <defs>
        <polygon id="path-1" points="0 0.335674545 63.7241379 0.335674545 63.7241379 60.7636364 0 60.7636364"></polygon>
        <polygon id="path-3" points="0.000434482758 0.335818182 63.7241379 0.335818182 63.7241379 60.7636364 0.000434482758 60.7636364"></polygon>
    </defs>
    <g id="Page-1" stroke="none" stroke-width="1" fill="none" fill-rule="evenodd">
        <g id="Desktop-HD-Copy-2" transform="translate(-895.000000, -4326.000000)">
            <g id="Group-13" transform="translate(895.000000, 4326.000000)">
                <g id="Group-3" transform="translate(0.000000, 15.900545)">
                    <mask id="mask-2" fill="white">
                        <use xlink:href="#path-1"></use>
                    </mask>
                    <g id="Clip-2"></g>
                    <path d="M63.7241379,7.41551091 L63.7241379,37.7831109 C63.7241379,41.6914564 60.5277931,44.8615109 56.5855862,44.8615109 L31.862069,44.9649291 L17.3793103,60.7649291 L17.3793103,44.9649291 L7.13855172,44.9649291 C3.19634483,44.9649291 0,41.7948745 0,37.8836564 L0,7.51749273 C0,3.60771091 3.19634483,0.437656364 7.13855172,0.437656364 L56.5841379,0.335674545 C60.5277931,0.335674545 63.7241379,3.50572909 63.7241379,7.41551091" id="Fill-1" fill="#5572E9" mask="url(#mask-2)"></path>
                </g>
                <g id="Group-12" transform="translate(20.275862, 0.100545)">
                    <mask id="mask-4" fill="white">
                        <use xlink:href="#path-3"></use>
                    </mask>
                    <g id="Clip-11"></g>
                    <path d="M56.5860207,0.436363636 L7.14043448,0.335818182 C3.19677931,0.335818182 0.000434482758,3.50587273 0.000434482758,7.41565455 L0.000434482758,16.2090727 L36.3101586,16.1343818 C40.2523655,16.1343818 43.4487103,19.3044364 43.4487103,23.2156545 L43.4487103,49.7036364 L53.5866414,60.7636364 L53.5866414,44.9636364 L56.5860207,44.9636364 C60.5282276,44.9636364 63.7245724,41.7935818 63.7245724,37.8838 L63.7245724,7.51763636 C63.7245724,3.60641818 60.5282276,0.436363636 56.5860207,0.436363636" id="Fill-10" fill="#6DD595" mask="url(#mask-4)"></path>
                </g>
            </g>
        </g>
    </g>
</svg>

<svg width="84" height="77" xmlns="http://www.w3.org/2000/svg" xmlns:xlink="http://www.w3.org/1999/xlink"><defs><path id="a" d="M0 .336h63.724v60.428H0z"/><path id="c" d="M0 .336h63.724v60.428H0z"/></defs><g fill="none" fill-rule="evenodd"><g transform="translate(0 15.9)"><mask id="b" fill="#fff"><use xlink:href="#a"/></mask><path d="M63.724 7.416v30.367c0 3.908-3.196 7.079-7.138 7.079l-24.724.103-14.483 15.8v-15.8H7.14C3.196 44.965 0 41.795 0 37.884V7.517C0 3.607 3.196.437 7.139.437L56.584.337c3.944 0 7.14 3.17 7.14 7.08" fill="#5572E9" mask="url(#b)"/></g><g transform="translate(20.276 .1)"><mask id="d" fill="#fff"><use xlink:href="#c"/></mask><path d="M56.586.436L7.14.336C3.197.336 0 3.506 0 7.416v8.793l36.31-.075c3.942 0 7.139 3.17 7.139 7.082v26.488l10.138 11.06v-15.8h2.999c3.942 0 7.139-3.17 7.139-7.08V7.518c0-3.912-3.197-7.082-7.139-7.082" fill="#6DD595" mask="url(#d)"/></g></g></svg>
